src/images_karasa_jaga_svg/cmd/32/fontworkshapetype.fontwork-stop.svg

<svg height="32" viewBox="0 0 32 32" width="32" xmlns="http://www.w3.org/2000/svg" xmlns:xlink="http://www.w3.org/1999/xlink"><linearGradient id="a" gradientUnits="userSpaceOnUse" x1="55.946133" x2="55.946133" y1="128.43102" y2="-.431001"><stop offset="0" stop-color="#fff"/><stop offset=".46428573" stop-color="#fff"/><stop offset=".78125" stop-color="#f1f1f1"/><stop offset=".90625" stop-color="#eaeaea"/><stop offset="1" stop-color="#dfdfdf"/></linearGradient><linearGradient id="b" gradientUnits="userSpaceOnUse" x1="55.946133" x2="55.946133" y1="128.43102" y2="-.431001"><stop offset="0" stop-color="#7c9fcf"/><stop offset=".5" stop-color="#7c9ece"/><stop offset="1" stop-color="#7b9dcf"/></linearGradient><g transform="scale(.25)"><path d="m32 15.974609a4.0249348 4.0249348 0 0 0 -2.912109 1.248047l-24.0039066 25.173828a4.0249348 4.0249348 0 0 0 -1.1132813 2.777344v37.652344a4.0249348 4.0249348 0 0 0 1.1132813 2.777344l24.0039066 25.173824a4.0249348 4.0249348 0 0 0 2.912109 1.24805h64a4.0249348 4.0249348 0 0 0 2.912109-1.24805l24.003911-25.173824a4.0249348 4.0249348 0 0 0 1.11328-2.777344v-37.652344a4.0249348 4.0249348 0 0 0 -1.11328-2.777344l-24.003911-25.173828a4.0249348 4.0249348 0 0 0 -2.912109-1.248047z" fill="url(#b)"/><path d="m32 20-24.0032911 25.173331v37.65334l24.0032911 25.173329h64l24.00329-25.173329v-37.65334l-24.00329-25.173331z" fill="url(#a)"/></g></svg>

<?xml version="1.0" encoding="UTF-8" standalone="no"?>
<!-- Created with Inkscape (http://www.inkscape.org/) -->

<svg
   xmlns:dc="http://purl.org/dc/elements/1.1/"
   xmlns:cc="http://creativecommons.org/ns#"
   xmlns:rdf="http://www.w3.org/1999/02/22-rdf-syntax-ns#"
   xmlns:svg="http://www.w3.org/2000/svg"
   xmlns="http://www.w3.org/2000/svg"
   xmlns:xlink="http://www.w3.org/1999/xlink"
   xmlns:sodipodi="http://sodipodi.sourceforge.net/DTD/sodipodi-0.dtd"
   xmlns:inkscape="http://www.inkscape.org/namespaces/inkscape"
   version="1.1"
   id="svg2"
   width="128"
   height="128"
   viewBox="0 0 128 128"
   sodipodi:docname="fontworkshapetype.fontwork-stop.svg"
   inkscape:export-filename="/home/rizmut/Dokumen/Rizmut/Github/libreoffice-style-karasa-jaga/build/images_karasa_jaga/cmd/32/fontworkshapetype.fontwork-stop.png"
   inkscape:export-xdpi="24"
   inkscape:export-ydpi="24"
   inkscape:version="0.92.3 (unknown)">
  <metadata
     id="metadata8">
    <rdf:RDF>
      <cc:Work
         rdf:about="">
        <dc:format>image/svg+xml</dc:format>
        <dc:type
           rdf:resource="http://purl.org/dc/dcmitype/StillImage" />
        <dc:title></dc:title>
      </cc:Work>
    </rdf:RDF>
  </metadata>
  <defs
     id="defs6">
    <linearGradient
       id="linearGradient7422">
      <stop
         style="stop-color:#7c9fcf;stop-opacity:1"
         offset="0"
         id="stop7424" />
      <stop
         id="stop5348"
         offset="0.5"
         style="stop-color:#7c9ece;stop-opacity:1" />
      <stop
         id="stop7426"
         offset="1"
         style="stop-color:#7b9dcf;stop-opacity:1" />
    </linearGradient>
    <linearGradient
       id="linearGradient3369">
      <stop
         id="stop3372"
         offset="0"
         style="stop-color:#ffffff;stop-opacity:1;" />
      <stop
         style="stop-color:#ffffff;stop-opacity:1;"
         offset="0.46428573"
         id="stop3374" />
      <stop
         style="stop-color:#f1f1f1;stop-opacity:1;"
         offset="0.78125"
         id="stop3376" />
      <stop
         id="stop3378"
         offset="0.90625"
         style="stop-color:#eaeaea;stop-opacity:1;" />
      <stop
         id="stop3384"
         offset="1"
         style="stop-color:#dfdfdf;stop-opacity:1;" />
    </linearGradient>
    <linearGradient
       inkscape:collect="always"
       xlink:href="#linearGradient3369"
       id="linearGradient876"
       x1="56"
       y1="128"
       x2="56"
       y2="0"
       gradientUnits="userSpaceOnUse"
       gradientTransform="matrix(1.0067345,0,0,1.0067345,-0.43100042,-0.43100087)" />
    <linearGradient
       inkscape:collect="always"
       xlink:href="#linearGradient7422"
       id="linearGradient886"
       gradientUnits="userSpaceOnUse"
       gradientTransform="matrix(1.0067345,0,0,1.0067345,-0.43100042,-0.43100087)"
       x1="56"
       y1="128"
       x2="56"
       y2="0" />
  </defs>
  <sodipodi:namedview
     pagecolor="#ffffff"
     bordercolor="#666666"
     borderopacity="1"
     objecttolerance="10"
     gridtolerance="10"
     guidetolerance="10"
     inkscape:pageopacity="0"
     inkscape:pageshadow="2"
     inkscape:window-width="1366"
     inkscape:window-height="706"
     id="namedview4"
     showgrid="true"
     inkscape:snap-page="true"
     inkscape:snap-global="false"
     inkscape:zoom="27.712123"
     inkscape:cx="28.561901"
     inkscape:cy="107.09055"
     inkscape:window-x="0"
     inkscape:window-y="0"
     inkscape:window-maximized="1"
     inkscape:current-layer="svg2">
    <inkscape:grid
       type="xygrid"
       id="grid814"
       spacingx="4"
       spacingy="4"
       empspacing="2" />
  </sodipodi:namedview>
  <path
     sodipodi:type="inkscape:offset"
     inkscape:radius="4.0245323"
     inkscape:original="M 32 20 L 7.9960938 45.173828 L 7.9960938 82.826172 L 32 108 L 96 108 L 120.00391 82.826172 L 120.00391 45.173828 L 96 20 L 32 20 z "
     style="opacity:1;fill:url(#linearGradient886);fill-opacity:1;stroke:none;stroke-width:4.28473663;stroke-linecap:round;stroke-linejoin:bevel;stroke-miterlimit:4;stroke-dasharray:none;stroke-dashoffset:0;stroke-opacity:0.73039216"
     id="path884"
     d="m 32,15.974609 a 4.0249348,4.0249348 0 0 0 -2.912109,1.248047 L 5.0839844,42.396484 a 4.0249348,4.0249348 0 0 0 -1.1132813,2.777344 v 37.652344 a 4.0249348,4.0249348 0 0 0 1.1132813,2.777344 L 29.087891,110.77734 A 4.0249348,4.0249348 0 0 0 32,112.02539 h 64 a 4.0249348,4.0249348 0 0 0 2.912109,-1.24805 L 122.91602,85.603516 a 4.0249348,4.0249348 0 0 0 1.11328,-2.777344 V 45.173828 a 4.0249348,4.0249348 0 0 0 -1.11328,-2.777344 L 98.912109,17.222656 A 4.0249348,4.0249348 0 0 0 96,15.974609 Z" />
  <g
     id="g2040"
     transform="matrix(1,0,0,-1,-480,143.99876)" />
  <path
     sodipodi:nodetypes="ccccccccc"
     inkscape:connector-curvature="0"
     id="rect3937-6"
     d="M 32,20 7.9967089,45.173331 v 37.65334 L 32,108 H 96 L 120.00329,82.826671 V 45.173331 L 96,20 Z"
     style="opacity:1;fill:url(#linearGradient876);fill-opacity:1;stroke:none;stroke-width:4.28473663;stroke-linecap:round;stroke-linejoin:bevel;stroke-miterlimit:4;stroke-dasharray:none;stroke-dashoffset:0;stroke-opacity:0.73039216" />
</svg>
